packages/icons/general/RedPacket.svg

<svg xmlns="http://www.w3.org/2000/svg" width="16" height="16" fill="none" viewBox="0 0 16 16">
    <path fill="#4B4B4B" fill-rule="evenodd" d="M15.5734 7.26907C15.6066 7.1886 15.6237 7.10236 15.6236 7.01528V5.68928C15.6236 5.51353 15.5538 5.34498 15.4295 5.2207C15.3053 5.09643 15.1367 5.02661 14.961 5.02661H1.03962C0.863871 5.02661 0.695319 5.09643 0.571045 5.2207C0.446771 5.34498 0.376953 5.51353 0.376953 5.68928V7.01528C0.376867 7.10236 0.393942 7.1886 0.427205 7.26907C0.460468 7.34955 0.509266 7.42268 0.570809 7.48429C0.632352 7.54589 0.705433 7.59476 0.785875 7.6281C0.866317 7.66145 0.952542 7.67861 1.03962 7.67861H1.70277V14.9705C1.70277 15.0576 1.71993 15.1438 1.75328 15.2243C1.78662 15.3047 1.83549 15.3778 1.8971 15.4393C1.9587 15.5009 2.03183 15.5497 2.11231 15.5829C2.19278 15.6162 2.27903 15.6333 2.3661 15.6332H13.6354C13.8112 15.6332 13.9799 15.5634 14.1042 15.4391C14.2286 15.3149 14.2986 15.1463 14.2988 14.9705V7.67861H14.961C15.048 7.67861 15.1343 7.66145 15.2147 7.6281C15.2951 7.59476 15.3682 7.54589 15.4298 7.48429C15.4913 7.42268 15.5401 7.34955 15.5734 7.26907Z" clip-rule="evenodd"/>
    <path stroke="black" stroke-linecap="round" stroke-linejoin="round" stroke-width="0.5" d="M11.5978 2.59999C11.0911 3.10733 8.66309 3.70066 8.66309 3.70066C8.66309 3.70066 9.25975 1.27266 9.76375 0.765992C9.88247 0.637973 10.0258 0.53522 10.1851 0.463882C10.3445 0.392544 10.5166 0.354088 10.6912 0.350814C10.8657 0.347541 11.0392 0.379517 11.2011 0.44483C11.363 0.510143 11.5101 0.60745 11.6335 0.730928C11.7569 0.854406 11.8542 1.00152 11.9194 1.16346C11.9847 1.3254 12.0166 1.49883 12.0133 1.6734C12.0099 1.84796 11.9714 2.02005 11.9 2.17938C11.8286 2.3387 11.7258 2.48132 11.5978 2.59999Z"/>
    <path stroke="black" stroke-linecap="round" stroke-linejoin="round" stroke-width="0.5" d="M4.40285 2.60011C4.90951 3.10745 7.33751 3.70078 7.33751 3.70078C7.33751 3.70078 6.74018 1.27345 6.23685 0.766779C5.99192 0.53162 5.66456 0.401857 5.32503 0.405342C4.98551 0.408827 4.66088 0.545283 4.42083 0.78542C4.18078 1.02556 4.04444 1.35024 4.04108 1.68976C4.03772 2.02929 4.1676 2.3566 4.40285 2.60145V2.60011Z"/>
    <path fill="#F93737" d="M14.2981 14.9705C14.298 15.1463 14.228 15.3148 14.1036 15.4391C13.9792 15.5633 13.8106 15.6331 13.6348 15.6331H2.36548C2.2784 15.6332 2.19216 15.6161 2.11169 15.5829C2.03121 15.5496 1.95808 15.5008 1.89647 15.4393C1.83487 15.3777 1.786 15.3047 1.75265 15.2242C1.71931 15.1438 1.70215 15.0575 1.70215 14.9705V7.67847H14.2975L14.2981 14.9705Z"/>
    <path fill="#CD1B1B" d="M14.2981 7.67847H1.70215V9.55847H14.2975V7.67847H14.2981Z"/>
    <path fill="#CD1B1B" d="M15.6236 7.01528C15.6237 7.10236 15.6066 7.1886 15.5734 7.26907C15.5401 7.34955 15.4913 7.42268 15.4298 7.48429C15.3682 7.54589 15.2951 7.59476 15.2147 7.6281C15.1343 7.66145 15.048 7.67861 14.961 7.67861H1.03962C0.952541 7.67861 0.866316 7.66145 0.785874 7.6281C0.705433 7.59476 0.632351 7.54589 0.570808 7.48429C0.509265 7.42268 0.460467 7.34955 0.427205 7.26907C0.393942 7.1886 0.376866 7.10236 0.376953 7.01528V5.68928C0.376953 5.51353 0.44677 5.34498 0.571044 5.2207C0.695318 5.09643 0.86387 5.02661 1.03962 5.02661H14.961C15.1367 5.02661 15.3053 5.09643 15.4295 5.2207C15.5538 5.34498 15.6236 5.51353 15.6236 5.68928V7.01594V7.01528Z"/>
    <path fill="#F93737" d="M15.6236 6.20061V5.68928C15.6236 5.51353 15.5538 5.34498 15.4295 5.2207C15.3053 5.09643 15.1367 5.02661 14.961 5.02661H1.03962C0.86387 5.02661 0.695318 5.09643 0.571044 5.2207C0.44677 5.34498 0.376953 5.51353 0.376953 5.68928V6.20061H15.6236Z"/>
    <path fill="#D8922C" d="M10.3207 5.02661H5.68066V7.67861H10.3207V5.02661Z"/>
    <path fill="#FFB952" d="M10.3207 5.02661H5.68066V6.20061H10.3207V5.02661Z"/>
    <path fill="#FFB952" d="M10.3207 7.67847H5.68066V15.6331H10.3207V7.67847Z"/>
    <path fill="#D8922C" d="M10.3207 7.67847H5.68066V9.55847H10.3207V7.67847Z"/>
    <path stroke="url(#paint0_linear_11296_11650)" stroke-linecap="round" stroke-linejoin="round" stroke-width="0.611111" d="M15.6236 7.01528C15.6237 7.10236 15.6066 7.1886 15.5734 7.26907C15.5401 7.34955 15.4913 7.42268 15.4298 7.48429C15.3682 7.54589 15.2951 7.59476 15.2147 7.62811C15.1343 7.66145 15.048 7.67861 14.961 7.67861H1.03962C0.952541 7.67861 0.866316 7.66145 0.785874 7.62811C0.705433 7.59476 0.632351 7.54589 0.570808 7.48429C0.509265 7.42268 0.460467 7.34955 0.427205 7.26907C0.393942 7.1886 0.376866 7.10236 0.376953 7.01528V5.68928C0.376953 5.51353 0.44677 5.34498 0.571044 5.2207C0.695318 5.09643 0.86387 5.02661 1.03962 5.02661H14.961C15.1367 5.02661 15.3053 5.09643 15.4295 5.2207C15.5538 5.34498 15.6236 5.51353 15.6236 5.68928V7.01594V7.01528Z"/>
    <path stroke="url(#paint1_linear_11296_11650)" stroke-linecap="round" stroke-linejoin="round" stroke-width="0.611111" d="M14.2981 14.9705C14.298 15.1463 14.228 15.3148 14.1036 15.4391C13.9792 15.5633 13.8106 15.6331 13.6348 15.6331H2.36548C2.2784 15.6332 2.19216 15.6161 2.11169 15.5829C2.03121 15.5496 1.95808 15.5008 1.89647 15.4393C1.83487 15.3777 1.786 15.3047 1.75265 15.2242C1.71931 15.1438 1.70215 15.0575 1.70215 14.9705L1.70215 7.67847H14.2981V14.9705Z"/>
    <path stroke="url(#paint2_linear_11296_11650)" stroke-linecap="round" stroke-linejoin="round" stroke-width="0.611111" d="M5.68066 5.02661V15.6333"/>
    <path stroke="url(#paint3_linear_11296_11650)" stroke-linecap="round" stroke-linejoin="round" stroke-width="0.611111" d="M10.3203 15.6333V5.02661"/>
    <path stroke="url(#paint4_linear_11296_11650)" stroke-linecap="round" stroke-linejoin="round" stroke-width="0.611111" d="M11.5978 2.59999C11.0911 3.10733 8.66309 3.70066 8.66309 3.70066C8.66309 3.70066 9.25975 1.27266 9.76375 0.765992C9.88247 0.637973 10.0258 0.53522 10.1851 0.463882C10.3445 0.392544 10.5166 0.354088 10.6912 0.350814C10.8657 0.347541 11.0392 0.379517 11.2011 0.44483C11.363 0.510143 11.5101 0.60745 11.6335 0.730928C11.7569 0.854406 11.8542 1.00152 11.9194 1.16346C11.9847 1.3254 12.0166 1.49883 12.0133 1.6734C12.0099 1.84796 11.9714 2.02005 11.9 2.17938C11.8286 2.3387 11.7258 2.48132 11.5978 2.59999Z"/>
    <path stroke="url(#paint5_linear_11296_11650)" stroke-linecap="round" stroke-linejoin="round" stroke-width="0.611111" d="M4.40285 2.59987C4.90951 3.1072 7.33751 3.70054 7.33751 3.70054C7.33751 3.70054 6.74018 1.2732 6.23685 0.766535C5.99192 0.531376 5.66456 0.401613 5.32503 0.405098C4.98551 0.408583 4.66088 0.545039 4.42083 0.785176C4.18078 1.02531 4.04444 1.34999 4.04108 1.68952C4.03772 2.02904 4.1676 2.35636 4.40285 2.6012V2.59987Z"/>
    <path stroke="url(#paint6_linear_11296_11650)" stroke-linecap="round" stroke-linejoin="round" stroke-width="0.611111" d="M4.40285 2.59987C4.90951 3.1072 7.33751 3.70054 7.33751 3.70054C7.33751 3.70054 6.74018 1.2732 6.23685 0.766535C5.99192 0.531376 5.66456 0.401613 5.32503 0.405098C4.98551 0.408583 4.66088 0.545039 4.42083 0.785176C4.18078 1.02531 4.04444 1.34999 4.04108 1.68952C4.03772 2.02904 4.1676 2.35636 4.40285 2.6012V2.59987Z"/>
    <g filter="url(#filter0_d_11296_11650)">
        <rect width="6.11111" height="6.11111" x="5.27734" y="4.36108" fill="#FFB952" rx="3.05556"/>
        <rect width="5.77778" height="5.77778" x="5.44401" y="4.52775" stroke="#EFA437" stroke-width="0.333333" rx="2.88889"/>
        <rect width="5.77778" height="5.77778" x="5.44401" y="4.52775" stroke="url(#paint7_linear_11296_11650)" stroke-width="0.333333" rx="2.88889"/>
        <path fill="white" fill-opacity="0.4" d="M8.33301 5.92285V7.02724L9.26645 7.44435L8.33301 5.92285Z"/>
        <path fill="white" d="M8.33298 5.9231L7.39941 7.44459L8.33298 7.02749V5.9231Z"/>
        <path fill="white" fill-opacity="0.4" d="M8.33301 8.16003V8.91044L9.26707 7.61816L8.33301 8.16003Z"/>
        <path fill="white" d="M8.33298 8.91044V8.1599L7.39941 7.61816L8.33298 8.91044Z"/>
        <path fill="white" fill-opacity="0.1" d="M8.33301 7.98619L9.26645 7.4442L8.33301 7.02734V7.98619Z"/>
        <path fill="white" fill-opacity="0.4" d="M7.39941 7.4442L8.33298 7.98619V7.02734L7.39941 7.4442Z"/>
    </g>
    <defs>
        <filter id="filter0_d_11296_11650" width="8.11133" height="8.77775" x="4.27734" y="4.36108" color-interpolation-filters="sRGB" filterUnits="userSpaceOnUse">
            <feFlood flood-opacity="0" result="BackgroundImageFix"/>
            <feColorMatrix in="SourceAlpha" result="hardAlpha" type="matrix" values="0 0 0 0 0 0 0 0 0 0 0 0 0 0 0 0 0 0 127 0"/>
            <feOffset dy="1.66667"/>
            <feGaussianBlur stdDeviation="0.5"/>
            <feComposite in2="hardAlpha" operator="out"/>
            <feColorMatrix type="matrix" values="0 0 0 0 0.519857 0 0 0 0 0.324628 0 0 0 0 0.120657 0 0 0 0.5 0"/>
            <feBlend in2="BackgroundImageFix" mode="multiply" result="effect1_dropShadow_11296_11650"/>
            <feBlend in="SourceGraphic" in2="effect1_dropShadow_11296_11650" mode="normal" result="shape"/>
        </filter>
        <linearGradient id="paint0_linear_11296_11650" x1="8.00029" x2="8.00029" y1="4.95763" y2="8.03119" gradientUnits="userSpaceOnUse">
            <stop stop-color="#FFDF86"/>
            <stop offset="0.385417" stop-color="#FFF3C7"/>
            <stop offset="0.713542" stop-color="#FFDF86"/>
            <stop offset="1" stop-color="#D57E42"/>
        </linearGradient>
        <linearGradient id="paint1_linear_11296_11650" x1="8.00015" x2="8.00015" y1="7.47155" y2="16.6907" gradientUnits="userSpaceOnUse">
            <stop stop-color="#FFDF86"/>
            <stop offset="0.385417" stop-color="#FFF3C7"/>
            <stop offset="0.713542" stop-color="#FFDF86"/>
            <stop offset="1" stop-color="#D57E42"/>
        </linearGradient>
        <linearGradient id="paint2_linear_11296_11650" x1="6.18066" x2="6.18066" y1="4.75072" y2="17.0434" gradientUnits="userSpaceOnUse">
            <stop stop-color="#FFDF86"/>
            <stop offset="0.385417" stop-color="#FFF3C7"/>
            <stop offset="0.713542" stop-color="#FFDF86"/>
            <stop offset="1" stop-color="#D57E42"/>
        </linearGradient>
        <linearGradient id="paint3_linear_11296_11650" x1="10.8203" x2="10.8203" y1="4.75072" y2="17.0434" gradientUnits="userSpaceOnUse">
            <stop stop-color="#FFDF86"/>
            <stop offset="0.385417" stop-color="#FFF3C7"/>
            <stop offset="0.713542" stop-color="#FFDF86"/>
            <stop offset="1" stop-color="#D57E42"/>
        </linearGradient>
        <linearGradient id="paint4_linear_11296_11650" x1="10.3383" x2="10.3383" y1="0.263445" y2="4.14604" gradientUnits="userSpaceOnUse">
            <stop stop-color="#F0C241"/>
            <stop offset="0.385417" stop-color="#FFE378"/>
            <stop offset="0.713542" stop-color="#FFD04E"/>
            <stop offset="1" stop-color="#D57E42"/>
        </linearGradient>
        <linearGradient id="paint5_linear_11296_11650" x1="5.68927" x2="5.68927" y1="0.319308" y2="4.13867" gradientUnits="userSpaceOnUse">
            <stop stop-color="#FFDF86"/>
            <stop offset="0.385417" stop-color="#FFF3C7"/>
            <stop offset="0.713542" stop-color="#FFDF86"/>
            <stop offset="1" stop-color="#D57E42"/>
        </linearGradient>
        <linearGradient id="paint6_linear_11296_11650" x1="5.68927" x2="5.68927" y1="0.319308" y2="4.13867" gradientUnits="userSpaceOnUse">
            <stop stop-color="#F0C241"/>
            <stop offset="0.385417" stop-color="#FFE378"/>
            <stop offset="0.713542" stop-color="#FFD04E"/>
            <stop offset="1" stop-color="#D57E42"/>
        </linearGradient>
        <linearGradient id="paint7_linear_11296_11650" x1="8.3329" x2="8.3329" y1="4.20212" y2="11.2847" gradientUnits="userSpaceOnUse">
            <stop stop-color="#FFDF86"/>
            <stop offset="0.385417" stop-color="#FFF3C7"/>
            <stop offset="0.713542" stop-color="#FFDF86"/>
            <stop offset="1" stop-color="#D57E42"/>
        </linearGradient>
    </defs>
</svg>

<svg xmlns="http://www.w3.org/2000/svg" fill="none" viewBox="0 0 16 16">
    <path fill="#4B4B4B" fill-rule="evenodd" d="M15.573 7.27a.664.664 0 0 0 .05-.255V5.69a.663.663 0 0 0-.662-.662H1.04a.663.663 0 0 0-.663.662v1.326a.663.663 0 0 0 .663.664h.663v7.291a.663.663 0 0 0 .663.663h11.27a.663.663 0 0 0 .663-.662V7.679h.662a.662.662 0 0 0 .612-.41Z" clip-rule="evenodd"/>
    <path stroke="#000" stroke-linecap="round" stroke-linejoin="round" stroke-width=".5" d="M11.598 2.6c-.507.507-2.935 1.1-2.935 1.1s.597-2.427 1.1-2.934A1.298 1.298 0 1 1 11.599 2.6Zm-7.195 0c.507.507 2.935 1.1 2.935 1.1S6.74 1.274 6.237.768A1.297 1.297 0 0 0 4.403 2.6v0Z"/>
    <path fill="#F93737" d="M14.298 14.97a.663.663 0 0 1-.663.663H2.365a.664.664 0 0 1-.663-.662V7.677h12.596v7.292Z"/>
    <path fill="#CD1B1B" d="M14.298 7.678H1.702v1.88h12.596v-1.88Z"/>
    <path fill="#CD1B1B" d="M15.624 7.015a.664.664 0 0 1-.663.664H1.04a.663.663 0 0 1-.663-.664V5.69a.663.663 0 0 1 .663-.662h13.92a.662.662 0 0 1 .663.662v1.327Z"/>
    <path fill="#F93737" d="M15.624 6.2v-.51a.663.663 0 0 0-.663-.663H1.04a.663.663 0 0 0-.663.662v.512h15.247Z"/>
    <path fill="#D8922C" d="M10.32 5.027H5.68v2.652h4.64V5.027Z"/>
    <path fill="#FFB952" d="M10.32 5.027H5.68V6.2h4.64V5.027Zm0 2.651H5.68v7.955h4.64V7.678Z"/>
    <path fill="#D8922C" d="M10.32 7.678H5.68v1.88h4.64v-1.88Z"/>
    <path stroke="url('#RedPacket_svg__paint0_linear_11296_11650')" stroke-linecap="round" stroke-linejoin="round" stroke-width=".611" d="M15.624 7.015a.664.664 0 0 1-.663.664H1.04a.663.663 0 0 1-.663-.664V5.69a.663.663 0 0 1 .663-.662h13.92a.662.662 0 0 1 .663.662v1.327Z"/>
    <path stroke="url('#RedPacket_svg__paint1_linear_11296_11650')" stroke-linecap="round" stroke-linejoin="round" stroke-width=".611" d="M14.298 14.97a.663.663 0 0 1-.663.663H2.365a.664.664 0 0 1-.663-.662V7.677h12.596v7.292Z"/>
    <path stroke="url('#RedPacket_svg__paint2_linear_11296_11650')" stroke-linecap="round" stroke-linejoin="round" stroke-width=".611" d="M5.68 5.027v10.606"/>
    <path stroke="url('#RedPacket_svg__paint3_linear_11296_11650')" stroke-linecap="round" stroke-linejoin="round" stroke-width=".611" d="M10.32 15.633V5.027"/>
    <path stroke="url('#RedPacket_svg__paint4_linear_11296_11650')" stroke-linecap="round" stroke-linejoin="round" stroke-width=".611" d="M11.598 2.6c-.507.507-2.935 1.1-2.935 1.1s.597-2.427 1.1-2.934A1.298 1.298 0 1 1 11.599 2.6Z"/>
    <path stroke="url('#RedPacket_svg__paint5_linear_11296_11650')" stroke-linecap="round" stroke-linejoin="round" stroke-width=".611" d="M4.403 2.6c.507.507 2.935 1.1 2.935 1.1S6.74 1.274 6.237.768A1.297 1.297 0 0 0 4.403 2.6v0Z"/>
    <path stroke="url('#RedPacket_svg__paint6_linear_11296_11650')" stroke-linecap="round" stroke-linejoin="round" stroke-width=".611" d="M4.403 2.6c.507.507 2.935 1.1 2.935 1.1S6.74 1.274 6.237.768A1.297 1.297 0 0 0 4.403 2.6v0Z"/>
    <g filter="url('#RedPacket_svg__filter0_d_11296_11650')">
        <rect width="6.111" height="6.111" x="5.277" y="4.361" fill="#FFB952" rx="3.056"/>
        <rect width="5.778" height="5.778" x="5.444" y="4.528" stroke="#EFA437" stroke-width=".333" rx="2.889"/>
        <rect width="5.778" height="5.778" x="5.444" y="4.528" stroke="url('#RedPacket_svg__paint7_linear_11296_11650')" stroke-width=".333" rx="2.889"/>
        <path fill="#fff" fill-opacity=".4" d="M8.333 5.923v1.104l.933.417-.933-1.521Z"/>
        <path fill="#fff" d="m8.333 5.923-.934 1.522.934-.418V5.923Z"/>
        <path fill="#fff" fill-opacity=".4" d="M8.333 8.16v.75l.934-1.292-.934.542Z"/>
        <path fill="#fff" d="M8.333 8.91v-.75l-.934-.542.934 1.292Z"/>
        <path fill="#fff" fill-opacity=".1" d="m8.333 7.986.933-.542-.933-.417v.96Z"/>
        <path fill="#fff" fill-opacity=".4" d="m7.4 7.444.933.542v-.959l-.934.417Z"/>
    </g>
    <defs>
        <linearGradient id="RedPacket_svg__paint0_linear_11296_11650" x1="8" x2="8" y1="4.958" y2="8.031" gradientUnits="userSpaceOnUse">
            <stop stop-color="#FFDF86"/>
            <stop offset=".385" stop-color="#FFF3C7"/>
            <stop offset=".714" stop-color="#FFDF86"/>
            <stop offset="1" stop-color="#D57E42"/>
        </linearGradient>
        <linearGradient id="RedPacket_svg__paint1_linear_11296_11650" x1="8" x2="8" y1="7.472" y2="16.691" gradientUnits="userSpaceOnUse">
            <stop stop-color="#FFDF86"/>
            <stop offset=".385" stop-color="#FFF3C7"/>
            <stop offset=".714" stop-color="#FFDF86"/>
            <stop offset="1" stop-color="#D57E42"/>
        </linearGradient>
        <linearGradient id="RedPacket_svg__paint2_linear_11296_11650" x1="6.181" x2="6.181" y1="4.751" y2="17.043" gradientUnits="userSpaceOnUse">
            <stop stop-color="#FFDF86"/>
            <stop offset=".385" stop-color="#FFF3C7"/>
            <stop offset=".714" stop-color="#FFDF86"/>
            <stop offset="1" stop-color="#D57E42"/>
        </linearGradient>
        <linearGradient id="RedPacket_svg__paint3_linear_11296_11650" x1="10.82" x2="10.82" y1="4.751" y2="17.043" gradientUnits="userSpaceOnUse">
            <stop stop-color="#FFDF86"/>
            <stop offset=".385" stop-color="#FFF3C7"/>
            <stop offset=".714" stop-color="#FFDF86"/>
            <stop offset="1" stop-color="#D57E42"/>
        </linearGradient>
        <linearGradient id="RedPacket_svg__paint4_linear_11296_11650" x1="10.338" x2="10.338" y1=".263" y2="4.146" gradientUnits="userSpaceOnUse">
            <stop stop-color="#F0C241"/>
            <stop offset=".385" stop-color="#FFE378"/>
            <stop offset=".714" stop-color="#FFD04E"/>
            <stop offset="1" stop-color="#D57E42"/>
        </linearGradient>
        <linearGradient id="RedPacket_svg__paint5_linear_11296_11650" x1="5.689" x2="5.689" y1=".319" y2="4.139" gradientUnits="userSpaceOnUse">
            <stop stop-color="#FFDF86"/>
            <stop offset=".385" stop-color="#FFF3C7"/>
            <stop offset=".714" stop-color="#FFDF86"/>
            <stop offset="1" stop-color="#D57E42"/>
        </linearGradient>
        <linearGradient id="RedPacket_svg__paint6_linear_11296_11650" x1="5.689" x2="5.689" y1=".319" y2="4.139" gradientUnits="userSpaceOnUse">
            <stop stop-color="#F0C241"/>
            <stop offset=".385" stop-color="#FFE378"/>
            <stop offset=".714" stop-color="#FFD04E"/>
            <stop offset="1" stop-color="#D57E42"/>
        </linearGradient>
        <linearGradient id="RedPacket_svg__paint7_linear_11296_11650" x1="8.333" x2="8.333" y1="4.202" y2="11.285" gradientUnits="userSpaceOnUse">
            <stop stop-color="#FFDF86"/>
            <stop offset=".385" stop-color="#FFF3C7"/>
            <stop offset=".714" stop-color="#FFDF86"/>
            <stop offset="1" stop-color="#D57E42"/>
        </linearGradient>
        <filter id="RedPacket_svg__filter0_d_11296_11650" width="8.111" height="8.778" x="4.277" y="4.361" color-interpolation-filters="sRGB" filterUnits="userSpaceOnUse">
            <feFlood flood-opacity="0" result="BackgroundImageFix"/>
            <feColorMatrix in="SourceAlpha" result="hardAlpha" values="0 0 0 0 0 0 0 0 0 0 0 0 0 0 0 0 0 0 127 0"/>
            <feOffset dy="1.667"/>
            <feGaussianBlur stdDeviation=".5"/>
            <feComposite in2="hardAlpha" operator="out"/>
            <feColorMatrix values="0 0 0 0 0.519857 0 0 0 0 0.324628 0 0 0 0 0.120657 0 0 0 0.5 0"/>
            <feBlend in2="BackgroundImageFix" mode="multiply" result="effect1_dropShadow_11296_11650"/>
            <feBlend in="SourceGraphic" in2="effect1_dropShadow_11296_11650" result="shape"/>
        </filter>
    </defs>
</svg>
